images/visa-logo.svg

<svg width="34" height="11" viewBox="0 0 34 11" fill="none" xmlns="http://www.w3.org/2000/svg">
<path fill-rule="evenodd" clip-rule="evenodd" d="M23.6993 7.27189C23.7061 5.55018 22.2997 4.80655 21.2082 4.22946C20.5173 3.86413 19.9526 3.56554 19.9526 3.12782C19.9526 2.75519 20.3105 2.35998 21.071 2.25835C21.9761 2.16794 22.8886 2.32798 23.7105 2.72131L24.1802 0.462962C23.379 0.159618 22.5306 0.00284685 21.6749 0C19.0355 0 17.2013 1.42276 17.2013 3.45528C17.2013 4.95708 18.5322 5.79267 19.5388 6.28951C20.5453 6.78634 20.9368 7.13639 20.9256 7.58806C20.9256 8.28815 20.098 8.60432 19.3263 8.61561C18.3743 8.62798 17.435 8.39478 16.5973 7.9381L16.1164 10.1965C17.0642 10.57 18.0739 10.7578 19.0914 10.7498C21.8986 10.7498 23.744 9.34957 23.7552 7.18156L23.6993 7.27189ZM16.4398 0.180889L14.203 10.6258H11.5188L13.7556 0.180889H16.4398ZM27.6933 6.9554L29.1025 3.03717L29.919 6.9554H27.6933ZM33.1613 10.6599H30.6784L30.354 9.10168H26.9876L26.4396 10.6599H23.6211L27.6363 0.982915C27.8214 0.522498 28.2625 0.21962 28.7547 0.215075H30.9915L33.1613 10.6599ZM8.33224 10.5924L12.6717 0.147522H9.76382L6.97895 7.25003L5.86053 1.20895C5.76153 0.595069 5.23511 0.144991 4.61908 0.147522H0.0671053L0 0.452399C0.91301 0.63275 1.79984 0.928672 2.63947 1.33316C2.9971 1.50291 3.23944 1.85061 3.27697 2.24779L5.41316 10.5924H8.33224Z" fill="#8989DB"/>
</svg>

<svg width="34" height="11" fill="none" xmlns="http://www.w3.org/2000/svg"><path fill-rule="evenodd" clip-rule="evenodd" d="M23.7 7.272c.006-1.722-1.4-2.465-2.492-3.043-.69-.365-1.255-.663-1.255-1.101 0-.373.358-.768 1.118-.87.905-.09 1.818.07 2.64.463l.47-2.258A7.142 7.142 0 0021.674 0C19.035 0 17.2 1.423 17.2 3.455c0 1.502 1.331 2.338 2.338 2.835 1.006.496 1.398.846 1.387 1.298 0 .7-.828 1.016-1.6 1.028a5.55 5.55 0 01-2.729-.678l-.48 2.259a7.943 7.943 0 002.974.553c2.808 0 4.653-1.4 4.664-3.568l-.056.09zM16.44.18l-2.237 10.445h-2.684L13.756.18h2.684zm11.253 6.774l1.41-3.918.816 3.918h-2.226zm5.468 3.705h-2.483l-.324-1.558h-3.366l-.548 1.558h-2.82L27.636.983a1.22 1.22 0 011.119-.768h2.236l2.17 10.445zm-24.829-.068L12.672.148H9.764L6.979 7.25 5.86 1.209A1.256 1.256 0 004.619.148H.067L0 .452c.913.18 1.8.477 2.64.881.357.17.6.518.637.915l2.136 8.344h2.92z" fill="#8989DB"/></svg>
